symbols/web/check_circle/materialsymbolsoutlined/check_circle_wght700gradN25fill1_24px.svg

<svg xmlns="http://www.w3.org/2000/svg" height="24" width="24"><path d="m10.55 16.975 7.25-7.25-2-2.025-5.25 5.25-2.5-2.5-2 2.025ZM12 22.6q-2.225 0-4.15-.837-1.925-.838-3.35-2.263-1.425-1.425-2.262-3.35Q1.4 14.225 1.4 12q0-2.225.838-4.15Q3.075 5.925 4.5 4.5t3.35-2.263Q9.775 1.4 12 1.4q2.225 0 4.15.837 1.925.838 3.35 2.263 1.425 1.425 2.263 3.35.837 1.925.837 4.15 0 2.225-.837 4.15-.838 1.925-2.263 3.35-1.425 1.425-3.35 2.263-1.925.837-4.15.837Z"/></svg>

<svg xmlns="http://www.w3.org/2000/svg" height="24" width="24"><path d="M12 22.6Q9.775 22.6 7.85 21.775Q5.925 20.95 4.488 19.512Q3.05 18.075 2.225 16.15Q1.4 14.225 1.4 12Q1.4 9.75 2.225 7.838Q3.05 5.925 4.488 4.487Q5.925 3.05 7.85 2.225Q9.775 1.4 12 1.4Q14.25 1.4 16.163 2.225Q18.075 3.05 19.513 4.487Q20.95 5.925 21.775 7.838Q22.6 9.75 22.6 12Q22.6 14.225 21.775 16.15Q20.95 18.075 19.513 19.512Q18.075 20.95 16.163 21.775Q14.25 22.6 12 22.6ZM10.55 16.975 17.8 9.725 15.8 7.7 10.55 12.95 8.05 10.45 6.05 12.475Z"/></svg>
